images/stone.svg

<svg xmlns="http://www.w3.org/2000/svg" width="16" height="16">
  <path d="M4.091153 1.5320212c.9235829-.1627012 1.8679653.4013787 2.2801235 1.233469.4447926.6632487 1.0657136 1.1799361 1.5455238 1.8104406.3938715.7031397.4280379 1.5333215.6441307 2.2976501.1340823.6676864.2915687 1.340971.3232916 2.0211503-.116054.5703842-.5747411.9698032-.9269933 1.3976698-.5344256.50386-1.3004567.518766-1.9776793.645216-.7498427.118752-1.5062304.028398-2.2594684.036217-.5276661-.006341-1.0735573-.208206-1.3785791-.666143-.5009045-.6190426-.9689134-1.4194215-.8022477-2.24996.1792524-.7066726.6421457-1.3535444.5551526-2.1157873-.0823053-.8727449.0626424-1.7460221.1590432-2.6120902.0117005-.3752943.1369662-.7332597.4048618-1.0001173.3274171-.3373802.708305-.686077 1.193141-.7369011.0806024-.0169051.1610697-.0352539.2394808-.0608823z" stroke-width="3" fill="none" stroke="#fff" stroke-linejoin="round" stroke-opacity=".5"/>
  <path d="M4.091153 1.5603836c.9235829-.1627014 1.8679653.4013785 2.2801235 1.2334687.4447926.663249 1.0657136 1.179936 1.5455238 1.8104406.3938715.7031397.4280379 1.5333216.6441307 2.2976507.1340823.6676859.2915687 1.3409706.3232916 2.021153-.116054.5703807-.5747411.9698018-.9269933 1.3976674-.5344256.503861-1.3004567.518762-1.9776793.645215-.7498427.118751-1.5062304.028398-2.2594684.036219-.5276661-.006342-1.0735573-.208208-1.3785791-.666146-.5009045-.6190416-.9689134-1.4194214-.8022477-2.2499586.1792524-.7066727.6421457-1.3535443.5551526-2.1157877-.0823053-.8727448.0626424-1.746022.1590432-2.6120901.0117005-.3752946.1369662-.7332592.4048618-1.000117.3274171-.3373803.708305-.6860773 1.193141-.736901.0806024-.0169053.1610697-.0352544.2394808-.0608828z"/>
</svg>

<?xml version="1.0" encoding="UTF-8" standalone="no"?>
<svg width="10.384222" height="12.506433" version="1.1" id="svg2" sodipodi:docname="stone.svg" inkscape:version="1.4.2 (ebf0e940d0, 2025-05-08)" xmlns:inkscape="http://www.inkscape.org/namespaces/inkscape" xmlns:sodipodi="http://sodipodi.sourceforge.net/DTD/sodipodi-0.dtd" xmlns="http://www.w3.org/2000/svg" xmlns:svg="http://www.w3.org/2000/svg">
  <defs id="defs2" />
  <sodipodi:namedview id="namedview2" pagecolor="#ffffff" bordercolor="#666666" borderopacity="1.0" inkscape:showpageshadow="2" inkscape:pageopacity="0.0" inkscape:pagecheckerboard="true" inkscape:deskcolor="#d1d1d1" showgrid="true" inkscape:zoom="64.875" inkscape:cx="8" inkscape:cy="7.9691715" inkscape:window-width="2154" inkscape:window-height="1206" inkscape:window-x="0" inkscape:window-y="0" inkscape:window-maximized="1" inkscape:current-layer="svg2">
    <inkscape:grid id="grid2" units="px" originx="0" originy="0" spacingx="1" spacingy="1" empcolor="#0000ff" empopacity="0.25098039" color="#0000ff" opacity="0.1254902" empspacing="5" enabled="true" visible="true" />
  </sodipodi:namedview>
  <path d="M 4.0911533,1.5320214 C 5.0147362,1.36932 5.9591186,1.9333999 6.3712768,2.7654901 C 6.8160694,3.4287391 7.4369904,3.9454261 7.9168006,4.5759307 C 8.3106721,5.2790704 8.3448385,6.1092523 8.5609313,6.8735814 C 8.6950136,7.5412673 8.8525,8.214552 8.8842229,8.8947344 C 8.7681689,9.4651151 8.3094818,9.8645362 7.9572296,10.292402 C 7.422804,10.796263 6.6567729,10.811164 5.9795503,10.937617 C 5.2297076,11.056368 4.4733199,10.966015 3.7200819,10.973836 C 3.1924158,10.967494 2.6465246,10.765628 2.3415028,10.30769 C 1.8405983,9.6886482 1.3725894,8.8882684 1.5392551,8.0577312 C 1.7185075,7.3510585 2.1814008,6.7041869 2.0944077,5.9419435 C 2.0121024,5.0691987 2.1570501,4.1959215 2.2534509,3.3298534 C 2.2651514,2.9545588 2.3904171,2.5965942 2.6583127,2.3297364 C 2.9857298,1.9923561 3.3666177,1.6436591 3.8514537,1.5928354 C 3.9320561,1.5759301 4.0125234,1.557581 4.0909345,1.5319526 Z" id="path2" style="stroke:#ffffff;stroke-width:3;stroke-linecap:round;stroke-linejoin:round;stroke-dasharray:none;stroke-opacity:0.5;paint-order:stroke fill markers" />
</svg>
